X: 150106
T: NICHOLSON'S WALTZ
R: Waltz.
%R: waltz
B: James Kerr "Merry Melodies" v.1 p.50 s.1 #6
Z: 2016 John Chambers <jc:trillian.mit.edu>
M: 3/4
L: 1/4
K: G
[|\
(G2B) | D3 | GBe | d3 |\
dgB | (e2d) | A3 | (c2B) |\
(G2B) | D3 | GBe | d3 |\
gGB | dDB | A3 | G2z |]
[|\
(e2g) | B3 | fgf | e3 |\
eBc | ABG | AFG | (E2F) |\
(G2B) | D3 | GBe | d3 |\
gGB | dDB | A3 | G2z |]

%%sep 1 1 500
%%sep 1 1 500

